X:1
T:Standin In The Need of Prayer
T:The gospel train
T:Copyright 1881 by The Riverside Press
T:Rodeheaver's Plantation Melodies
T:Rodeheaver's Plantation Melodies
Z:Rodeheaver's Plantation Melodies
%%score [ 1 2 3 4 ]
L:1/8
Q:1/4=140
M:4/4
K:G
V:1 treble nm="Soprano" snm="S."
V:2 treble nm="Alto" snm="A."
V:3 bass nm="Tenor" snm="T."
V:4 bass nm="Bass" snm="B."
V:1
 B4 | D2 E2 G2 G2 | G2 G4 D2 | E2 G2 G2 G2 | (E D2) z D4 | E2 G2 G2 G2 | G2 G4 G-G | B2 B2 A2 A2 | %8
w: The|gos- pel train is|com- ing. I|hear it just at|hand- . I|hear the car wheels|mov- ing. And- *|rum- ble thro' the|
 (G2 B2) |: B G3 | (E6 G2) | G2 G2 G G3 | (D6 G2) | G2 G2 B G3 | (E6 G2) | G2 G4 GA | %16
w: land- .||||||||
 B2 B2 AA A2 |1 (G2 B2) :|2 G4 |] %19
w: |||
V:2
 z4 | z8 | z8 | z8 | z4 z2 z2 | z8 | z8 | z8 | z4 |: D D3 | (C6 E2) | E2 E2 E E3 | D8 | %13
w: |||||||||Get on|board- ,|chil- dren. Get on|board|
 G2 G2 D D3 | (C6 E2) | E2 G4 GA | G2 G2 FF F2 |1 (G2 B2) :|2 G4 |] %19
w: chil- dren. Get on|board *|chil- dren. For there's|room for ma- ny a|more- .|more.|
V:3
 z4 | z8 | z8 | z8 | z4 z2 z2 | z8 | z8 | z8 | z4 |: B, B,3 | C8 | C2 C2 C C3 | B,8 | %13
 B,2 B,2 B, B,3 | C8 | C2 C4 CC | C2 C2 CC C2 |1 B,4 :|2 B,4 |] %19
V:4
 z4 | z8 | z8 | z8 | z4 z2 z2 | z8 | z8 | z8 | z4 |: G, G,3 | C,8 | C,2 C,2 C, C,3 | G,8 | %13
 G,2 G,2 G, G,3 | C,8 | C,2 C,4 C,C, | D,2 D,2 D,D, D,2 |1 G,4 :|2 G,4 |] %19

